packages/Snappmarket/src/LogoutIcon/index.svg

<svg
  xmlns="http://www.w3.org/2000/svg"
  width="32pt"
  height="24pt"
  viewBox="0 0 32 24"
  version="1.1"
  id="LogoutIcon"
>
  <path d="M 0 4.054688 L 0 20.253906 C 0.0078125 22.488281 1.820312 24.296875 4.054688 24.300781 L 17.144531 24.300781 C 19.378906 24.296875 21.191406 22.488281 21.199219 20.253906 L 21.199219 17.628906 C 21.199219 17.1875 20.84375 16.828125 20.398438 16.828125 C 19.957031 16.828125 19.601562 17.1875 19.601562 17.628906 L 19.601562 20.253906 C 19.59375 21.605469 18.492188 22.699219 17.136719 22.699219 L 4.054688 22.699219 C 2.703125 22.695312 1.605469 21.605469 1.601562 20.253906 L 1.601562 4.050781 C 1.605469 2.699219 2.699219 1.601562 4.054688 1.601562 L 17.144531 1.601562 C 18.5 1.601562 19.597656 2.699219 19.601562 4.054688 L 19.601562 6.679688 C 19.601562 7.121094 19.957031 7.476562 20.398438 7.476562 C 20.84375 7.476562 21.199219 7.121094 21.199219 6.679688 L 21.199219 4.054688 C 21.195312 1.820312 19.386719 0.0078125 17.152344 0 L 4.054688 0 C 1.816406 0 0 1.816406 0 4.054688 Z M 0 4.054688 " />
  <path d="M 25.152344 18.191406 C 25.304688 18.339844 25.507812 18.425781 25.722656 18.425781 C 25.933594 18.425781 26.140625 18.339844 26.289062 18.191406 L 31.765625 12.714844 C 32.078125 12.402344 32.078125 11.894531 31.765625 11.585938 L 26.289062 6.109375 C 25.972656 5.820312 25.488281 5.832031 25.1875 6.136719 C 24.886719 6.4375 24.875 6.921875 25.160156 7.238281 L 29.273438 11.351562 L 14.273438 11.351562 C 13.832031 11.351562 13.472656 11.707031 13.472656 12.148438 C 13.472656 12.59375 13.832031 12.949219 14.273438 12.949219 L 29.273438 12.949219 L 25.160156 17.0625 C 25.007812 17.210938 24.921875 17.414062 24.917969 17.625 C 24.917969 17.835938 25.003906 18.039062 25.152344 18.191406 Z M 25.152344 18.191406 " />
</svg>

<svg xmlns="http://www.w3.org/2000/svg" viewBox="0 0 32 24">
  <path d="M0 4.055v16.199A4.062 4.062 0 004.055 24.3h13.09a4.062 4.062 0 004.054-4.047v-2.625a.8.8 0 10-1.597 0v2.625a2.463 2.463 0 01-2.465 2.445H4.055a2.456 2.456 0 01-2.453-2.445V4.05A2.454 2.454 0 014.055 1.6h13.09a2.458 2.458 0 012.457 2.454V6.68c0 .441.355.797.796.797.446 0 .801-.356.801-.797V4.055A4.062 4.062 0 0017.152 0H4.055A4.056 4.056 0 000 4.055zm0 0"/>
  <path d="M25.152 18.191a.808.808 0 001.137 0l5.477-5.476a.797.797 0 000-1.13L26.289 6.11a.8.8 0 00-1.129 1.129l4.113 4.114h-15a.799.799 0 100 1.597h15l-4.113 4.114a.806.806 0 00-.242.562c0 .21.086.414.234.566zm0 0"/>
</svg>
